X:1
T:Johannes Galliculus ~1490 - ~1550
T:In Natali Domini
%%score [ 1 2 3 4 ]
L:1/8
Q:1/4=280
M:4/4
K:C
V:1 treble nm="Discantus"
V:2 treble nm="Altus"
V:3 treble nm="Tenor"
V:4 treble nm="Bassus"
V:1
"^;""^C" x2"^U" ||[K:F] F16 | E8 E8 | C16 | E16 | F8 D8 |[M:4/2] E16 | z8 x8- | x8 B8 | A12 G2 F2 | %10
w: |In|na- ta-|li|Do-|mi- *|ni|cla-|mant|mor- * *|
 E8 x8- | x8 D8 | E16 | F16 | z16 | z16 | z16 | z16 | B16 | A8 G8 | A8 B8 | A8 G8 | A12 G4 | %23
w: ta- les|sin-|gu-|li.|||||Zu|Beth- le-|hem ist|uns ge-|born ein|
 F8 E8 | F16 | A8 A4 A4 | A8 A8 | G4 G4 x8- | x4 =B2 A2 B8 | c16 | A16 | z16 | z16 | B16 | A8 G8 | %35
w: Kin- de-|lein.|wo, wo, wo,|wo, ist|uns ein kind||ge-|born?|||Zu|Beth- le-|
 A8 B8 | A4 G4 A4 G4 | A4 G4 F4 G4 | A4 B4 A4 G4 | A4 G4 F8 | B16 | A8 G4 x4- | %42
w: hem ist|uns ge- born ein|Kin- de- lein, ge-|le- get in ein|Krip- pe- lein,|Zu|Beth- le- hem|
 x2 G2 F2 E2 D4 x4- | x2 F2 F8 E4 | F16 |] %45
w: * * * * Ju||da.|
V:2
"^;""^C" x2"^U" ||[K:F] C16 | C8 C8 | C6 B,2 A,4 F,4 | G,16 | F,16 |[M:4/2] G,16 | z8 x8- | x8 F8 | %9
w: |In|na- ta-|li * Do- *||mi-|ni|cla-|mant|
 F16 | E8 x8- | x8 D8 | C16 | A,16 | z16 | z16 | z16 | z16 | G12 x4- | x2 F2 F8 E4 | F8 z4 F4 | %21
w: mor-|ta- les|sin-|gu-|li.|||||Zu Beth|* * le-|hem ist|
 F4 F4 D4 E4 | F12 E4 | D8 C8 | A,8 F,8 | F8 F4 F4 | C8 C8 | C6 D2 E6 F2 | G16 | E16 | F16 | z16 | %32
w: uns ge- born ein|Kin- *|* de-|lein. *|Wo, wo, wo,|wo, ist|uns * ein *|Kind|ge-|born?||
 z16 | G8 G4 x4- | x2 F2 F8 E4 | F8 F8 | F4 E4 F4 E4 | F4 D4 D4 E4 | F4 F4 F4 E4 | F4 E4 D6 E2 | %40
w: |Zu Beth- le-||hem ist|uns ge- born ein|Kin- de- lein, ge-|bun- den in ein|Tü- che- lein *|
 F8 F,6 G,2 | A,8 z8 | F12 _E4 | D4 B,4 C8 | C16 |] %45
w: * zu *||Beth- le-|hem * Ju-|da.|
V:3
"^;""^C" x2"^U" ||[K:F][K:treble-8] F16 | G8 G8 | A16 | G8 x8- | x4 =B2 A2 B4 B4 | %6
w: |In|na- ta-|li|Do- *|* * * mi-|
[M:4/2][K:treble-8] c16 | z8 x8- | x8 d8 | c16 | c8 x8- | x8 B8 | G16 | F16 | c8 x8- | x8 A8 | %16
w: ni|cla-|mant|mor-|ta- les|sin-|gu-|li.|Wo ist|uns|
 G8 A8 | B8 c8 | d16 | c8 B8 | c8 d8 | c8 B8 | c12 B4 | A8 G8 | F16 | c8 c4 c4 | f8 f8 | e8 c8 | %28
w: ein Kind|ge- born?|Zu|Beth- le-|hem ist|uns ge-|born ein|Kin- de-|lein.|Wo, wo, wo,|wo ist|uns ein|
 d8 d8 |"^Ø" x16- | x16 | F8 A8 | B8 c8 | d16 | c8 B8 | c8 d8 | c4 B4 c4 B4 | c4 B4 A4 B4 | %38
w: Kind ge-|born?||Zu Beth-|le- hem,|zu|Beth- le-|hem ist|uns ge- born ein|Kin- de- lein ge-|
 c4 d4 c4 B4 | c4 B4 A8 | d16 | c16 | A8 B8 | A4 F4 G8 | F16 |] %45
w: le- get in ein|Krip- pe- lein|zu|Beth-|le- *|hem * Ju-|da.|
V:4
"^;""^F" x2"^U" ||[K:F][K:bass] F,16 | C,8 C,8 | F,16 | C,16 | D,16 |[M:4/2] C,16 | z8 x8- | %8
w: |In|na- ta-|li|Do-|mi-|ni|cla-|
 x8 B,,8 | F,12 E,2 D,2 | C,8 x8- | x8 B,,8 | C,16 | F,,16 | F,8 E,8 | F,16 | E,8 D,8 | D,8 C,8 | %18
w: mant|mor- * *|ta- les|sin-|gu-|li.|Wo ist|uns|ein Kind|ge- born?|
 G,6 A,2 B,8 | F,8 G,8 | F,8 B,,8 | F,8 G,8 | F,8 z4 G,4 | D,4 F,4 C,8 | F,,16 | F,8 F,4 F,4 | %26
w: Zu * *|Beth- le-|hem ist|uns ge-|born ein|Kin- * de-|lein.|Wo, wo, wo,|
 F,8 F,8 | C,8 C,8 | G,16 | C,16 | F,16 | F,8 F,8 | D,8 C,8 | G,6 A,2 B,8 | F,8 G,8 | F,8 B,,8 | %36
w: wo ist|uns ein|Kind|ge-|born?|Zu Beth-|le- gem,|[zu * *|Beth- le-|hem] ist|
 F,4 G,4 F,4 G,4 | F,4 G,4 D,4 G,4 | F,4 B,,4 F,4 G,4 | F,4 C,4 D,8 | B,,16 | F,8 E,4 x4- | %42
w: uns ge- born ein|Kin- de- lein ge-|bun- den in ein|Tü- che- lein|zu|Beth- le- hem|
 x2 E,2 D,2 C,2 B,,4 _E,4 | F,4 D,4 C,8 | F,,16 |] %45
w: * * * Ju- *||da.|

